X: 1
T: The Dog Ate The Bird
R: reel
M: 4/4
L: 1/8
K: Dmaj
|:~d3c dAFA|~G3F GFEG|FAdg gfed|caec bafe|
~d3c dAFA|~G3F GFEG|FAdA BBed|1 cAGE F2A/B/c:|2 cAGE D2DE||
K: Dmin
|:~F3E FEDC|~B,3A, B,A,G,B,|A,CDE FGAB|AGFc dddc|
dAA/A/A AGFE|DB,B,/B,/B, B,DEF|GBB/B/B Add/d/d|Bdfa gfef|
d3A FEDC|A,B,B,A, B,A,G,B,|A,CDE FGAB|AGFc ddde|
fag/f/e fdcA|BBBc BAGF|EEEG GECE|AGFE D3c||

